sliced-svg/output/0224-sitelen-pona.svg

<?xml version="1.0" encoding="UTF-8"?><svg xmlns="http://www.w3.org/2000/svg" xmlns:xlink="http://www.w3.org/1999/xlink" width="1000px" height="1000px" version="1.1"><g id="surface1"><path style="fill:none;stroke-width:1;stroke-linecap:round;stroke-linejoin:miter;stroke:rgb(0%,0%,0%);stroke-opacity:1;stroke-miterlimit:4" d="M 75 455 L 73 452 " transform="matrix(50,0,0,50,-4000,-22000)"/><path style="fill:none;stroke-width:1;stroke-linecap:round;stroke-linejoin:round;stroke:rgb(0%,0%,0%);stroke-opacity:1;stroke-miterlimit:4" d="M 88 450.809219 C 88 451.91375 88.895469 452.809219 90 452.809219 C 91.104609 452.809219 92 451.91375 92 450.809219 " transform="matrix(50,0,0,50,-4000,-22000)"/><path style="fill:none;stroke-width:1;stroke-linecap:round;stroke-linejoin:round;stroke:rgb(0%,0%,0%);stroke-opacity:1;stroke-miterlimit:4" d="M 85 445 L 95 445 L 95 455 L 85 455 Z M 85 445 " transform="matrix(50,0,0,50,-4000,-22000)"/><path style="stroke:none;fill-rule:nonzero;fill:rgb(0%,0%,0%);fill-opacity:1" d="M551.222656 400C551.222656 427.613281 528.835938 450 501.222656 450 473.609375 450 451.222656 427.613281 451.222656 400 451.222656 372.386719 473.609375 350 501.222656 350 528.835938 350 551.222656 372.386719 551.222656 400zM423.699219 400C423.699219 427.613281 401.3125 450 373.699219 450 346.085938 450 323.699219 427.613281 323.699219 400 323.699219 372.386719 346.085938 350 373.699219 350 401.3125 350 423.699219 372.386719 423.699219 400zM683.699219 400C683.699219 427.613281 661.3125 450 633.699219 450 606.085938 450 583.699219 427.613281 583.699219 400 583.699219 372.386719 606.085938 350 633.699219 350 661.3125 350 683.699219 372.386719 683.699219 400zM683.699219 400"/></g></svg>

<svg xmlns="http://www.w3.org/2000/svg" width="1000" height="1000"><defs/><path d="M400 540.461c0 55.227 44.773 100 100 100 55.23 0 100-44.773 100-100" fill="none" stroke-linecap="round" stroke-linejoin="round" stroke="#000" stroke-width="50"/><path d="M250 250h500v500H250zm0 0" fill="none" stroke-linecap="round" stroke-linejoin="round" stroke="#000" stroke-width="50"/><path d="M551.223 400c0 27.613-22.387 50-50 50-27.614 0-50-22.387-50-50s22.386-50 50-50c27.613 0 50 22.387 50 50zM423.7 400c0 27.613-22.387 50-50 50-27.614 0-50-22.387-50-50s22.386-50 50-50c27.613 0 50 22.387 50 50zm260 0c0 27.613-22.388 50-50 50-27.614 0-50-22.387-50-50s22.386-50 50-50c27.612 0 50 22.387 50 50zm0 0"/></svg>
